flaticon/productivity/clock.svg

<svg xmlns="http://www.w3.org/2000/svg" width="32" height="32" viewBox="0 0 24 24">
    <path d="M 12 0 C 5.382812 0 0 5.382812 0 12 C 0 18.617188 5.382812 24 12 24 C 18.617188 24 24 18.617188 24 12 C 24 5.382812 18.617188 0 12 0 Z M 22.933594 12.742188 C 22.761719 15.339844 21.675781 17.695312 20 19.484375 L 18.671875 18.15625 L 17.9375 18.894531 L 19.253906 20.210938 C 17.441406 21.8125 15.09375 22.828125 12.519531 22.949219 L 12.519531 21.136719 L 11.480469 21.136719 L 11.480469 22.949219 C 8.90625 22.828125 6.558594 21.8125 4.746094 20.207031 L 6.054688 18.894531 L 5.320312 18.160156 L 4 19.484375 C 2.324219 17.691406 1.238281 15.339844 1.066406 12.742188 L 3.085938 12.742188 L 3.085938 11.703125 L 1.042969 11.703125 C 1.117188 9.039062 2.140625 6.613281 3.789062 4.746094 L 5.328125 6.285156 L 6.0625 5.550781 L 4.515625 4.003906 C 6.355469 2.277344 8.792969 1.179688 11.480469 1.050781 L 11.480469 3.308594 L 12.519531 3.308594 L 12.519531 1.050781 C 15.195312 1.179688 17.625 2.269531 19.460938 3.980469 L 17.890625 5.554688 L 18.628906 6.289062 L 20.191406 4.726562 C 21.851562 6.59375 22.882812 9.03125 22.957031 11.703125 L 20.914062 11.703125 L 20.914062 12.742188 Z M 22.933594 12.742188"/>
    <path d="M 12.367188 12.367188 L 11.632812 11.632812 L 15.953125 7.3125 L 16.6875 8.046875 Z M 12.367188 12.367188"/>
</svg>

<svg xmlns="http://www.w3.org/2000/svg" width="32" height="32" viewBox="0 0 24 24">
    <path d="M12 0C5.383 0 0 5.383 0 12s5.383 12 12 12 12-5.383 12-12S18.617 0 12 0zm10.934 12.742A10.907 10.907 0 0 1 20 19.484l-1.328-1.328-.735.739 1.317 1.316a10.932 10.932 0 0 1-6.734 2.738v-1.812h-1.04v1.812a10.913 10.913 0 0 1-6.734-2.742l1.309-1.312-.735-.735L4 19.484a10.917 10.917 0 0 1-2.934-6.742h2.02v-1.039H1.043a10.94 10.94 0 0 1 2.746-6.957l1.54 1.54.734-.735-1.547-1.547A10.923 10.923 0 0 1 11.48 1.05v2.258h1.04V1.05a10.938 10.938 0 0 1 6.94 2.93l-1.57 1.574.739.734 1.562-1.562a10.93 10.93 0 0 1 2.766 6.976h-2.043v1.04zm0 0"/>
    <path d="M12.367 12.367l-.734-.734 4.32-4.32.735.734zm0 0"/>
</svg>
